symbols/de/zs2v-ẞ.svg

<?xml version="1.0" encoding="UTF-8" standalone="no"?>
<svg
   width="11.999999"
   height="12"
   viewBox="0 0 11.999999 12"
   version="1.1"
   id="svg5997"
   sodipodi:docname="zs2v-{ß}.svg"
   inkscape:version="1.2.2 (b0a8486541, 2022-12-01)"
   xmlns:inkscape="http://www.inkscape.org/namespaces/inkscape"
   xmlns:sodipodi="http://sodipodi.sourceforge.net/DTD/sodipodi-0.dtd"
   xmlns="http://www.w3.org/2000/svg"
   xmlns:svg="http://www.w3.org/2000/svg">
  <defs
     id="defs6001" />
  <sodipodi:namedview
     id="namedview5999"
     pagecolor="#ffffff"
     bordercolor="#666666"
     borderopacity="1.0"
     inkscape:showpageshadow="2"
     inkscape:pageopacity="0.0"
     inkscape:pagecheckerboard="0"
     inkscape:deskcolor="#d1d1d1"
     showgrid="false"
     inkscape:zoom="65.374769"
     inkscape:cx="5.7514544"
     inkscape:cy="6.2944773"
     inkscape:window-width="1920"
     inkscape:window-height="1128"
     inkscape:window-x="0"
     inkscape:window-y="0"
     inkscape:window-maximized="1"
     inkscape:current-layer="text847" />
  <rect
     x="-1.2"
     y="-1.2"
     width="14.399999"
     height="14.4"
     fill="rgb(0%, 0%, 0%)"
     fill-opacity="1"
     id="rect5993" />
  <g
     aria-label="ß"
     id="text847"
     style="font-size:13.3333px;line-height:1.25;-inkscape-font-specification:sans-serif;font-variant-ligatures:none;text-align:center;letter-spacing:0px;word-spacing:0px;text-anchor:middle">
    <path
       d="m 3.0117258,3.4576889 q 0,-1.30208 0.7747377,-2.0117136 0.781248,-0.71614407 2.2005152,-0.71614407 1.3541633,0 2.0637969,0.75520647 0.716144,0.7552064 0.7356752,2.213536 -0.9830704,0.052083 -1.529944,0.4296864 -0.5468737,0.3710929 -0.5468737,0.9960913 0,0.3059888 0.1888017,0.5729152 0.1888016,0.260416 0.6119776,0.5338528 L 7.8815052,6.4720042 Q 8.9622316,7.1621066 9.2747308,7.6243451 9.58723,8.0865835 9.58723,8.7376235 q 0,1.1197888 -0.7356752,1.7187455 -0.7291648,0.592447 -2.1028593,0.592447 -0.4166656,0 -0.8593728,-0.08464 -0.4427072,-0.07812 -0.9179664,-0.234374 V 9.6621003 q 0.520832,0.195312 0.97656,0.292968 0.455728,0.091146 0.8789041,0.091146 0.7552064,0 1.1458304,-0.3059889 0.390624,-0.3124992 0.390624,-0.9049456 0,-0.4101552 -0.195312,-0.683592 Q 7.9791612,7.8782507 7.3216108,7.4746059 L 6.7226539,7.1165338 Q 6.0976555,6.7324202 5.8111979,6.2962234 5.5312507,5.8535162 5.5312507,5.2610698 q 0,-0.8268208 0.5403632,-1.3867153 Q 6.6184875,3.3144601 7.601558,3.1256585 7.5494748,2.4550873 7.1197884,2.0905049 6.6966123,1.7259225 5.9609371,1.7259225 q -0.846352,0 -1.2890592,0.455728 -0.4427072,0.4492176 -0.4427072,1.30208 V 10.860014 H 3.0117258 Z"
       style="fill:#fefc5d;fill-opacity:1"
       id="path14437" />
  </g>
</svg>

<?xml version="1.0" encoding="UTF-8"?>
<svg xmlns="http://www.w3.org/2000/svg" xmlns:xlink="http://www.w3.org/1999/xlink" width="11.999999" height="12" viewBox="0 0 11.999999 12">
<rect x="-1.2" y="-1.2" width="14.399999" height="14.4" fill="rgb(0%, 0%, 0%)" fill-opacity="1"/>
<path fill-rule="nonzero" fill="rgb(99.607843%, 98.823529%, 36.470588%)" fill-opacity="1" d="M 3.011719 3.457031 C 3.011719 2.589844 3.269531 1.917969 3.785156 1.445312 C 4.308594 0.96875 5.039062 0.730469 5.988281 0.730469 C 6.890625 0.730469 7.578125 0.980469 8.050781 1.484375 C 8.527344 1.988281 8.773438 2.726562 8.785156 3.699219 C 8.132812 3.734375 7.621094 3.875 7.257812 4.128906 C 6.890625 4.375 6.710938 4.707031 6.710938 5.125 C 6.710938 5.328125 6.773438 5.519531 6.898438 5.699219 C 7.023438 5.871094 7.226562 6.050781 7.511719 6.230469 L 7.882812 6.472656 C 8.601562 6.933594 9.066406 7.316406 9.273438 7.625 C 9.484375 7.933594 9.585938 8.304688 9.585938 8.738281 C 9.585938 9.484375 9.34375 10.058594 8.851562 10.457031 C 8.367188 10.851562 7.664062 11.046875 6.75 11.046875 C 6.472656 11.046875 6.183594 11.019531 5.890625 10.964844 C 5.59375 10.910156 5.289062 10.832031 4.972656 10.730469 L 4.972656 9.660156 C 5.320312 9.792969 5.644531 9.890625 5.949219 9.953125 C 6.25 10.015625 6.542969 10.046875 6.828125 10.046875 C 7.332031 10.046875 7.710938 9.945312 7.972656 9.738281 C 8.234375 9.53125 8.363281 9.230469 8.363281 8.835938 C 8.363281 8.5625 8.296875 8.332031 8.167969 8.152344 C 8.042969 7.96875 7.761719 7.742188 7.320312 7.472656 L 6.722656 7.117188 C 6.304688 6.859375 6.003906 6.585938 5.8125 6.296875 C 5.625 6 5.53125 5.65625 5.53125 5.261719 C 5.53125 4.710938 5.710938 4.246094 6.070312 3.875 C 6.4375 3.5 6.945312 3.25 7.601562 3.125 C 7.566406 2.679688 7.40625 2.332031 7.121094 2.089844 C 6.835938 1.847656 6.453125 1.726562 5.960938 1.726562 C 5.398438 1.726562 4.96875 1.878906 4.671875 2.183594 C 4.375 2.480469 4.230469 2.914062 4.230469 3.484375 L 4.230469 10.859375 L 3.011719 10.859375 Z M 3.011719 3.457031 "/>
</svg>
